svgs/light/face-lying.svg

<svg xmlns="http://www.w3.org/2000/svg" viewBox="0 0 512 512"><!--! Font Awesome Pro 6.4.2 by @fontawesome - https://fontawesome.com License - https://fontawesome.com/license (Commercial License) Copyright 2023 Fonticons, Inc. --><path d="M256 32C132.3 32 32 132.3 32 256s100.3 224 224 224c79.8 0 149.8-41.7 189.5-104.5c4.7-7.5 14.6-9.7 22.1-5s9.7 14.6 5 22.1C427.3 464.3 347.2 512 256 512C114.6 512 0 397.4 0 256S114.6 0 256 0C373.8 0 472.9 79.5 502.8 187.7c2.3 8.5-2.6 17.3-11.2 19.7s-17.3-2.6-19.7-11.2C445.8 101.5 359 32 256 32zM152.4 176a24 24 0 1 1 48 0 24 24 0 1 1 -48 0zm160 0a24 24 0 1 1 48 0 24 24 0 1 1 -48 0zM188.8 393.6c-5.3 7.1-15.3 8.5-22.4 3.2s-8.5-15.3-3.2-22.4C180.7 351.1 208.6 336 240 336c13.6 0 26.6 2.8 38.4 8c8.1 3.5 11.8 13 8.3 21.1s-13 11.8-21.1 8.3c-7.8-3.4-16.5-5.3-25.6-5.3c-20.9 0-39.5 10-51.2 25.6zM288 224H448c35.3 0 64 28.7 64 64s-28.7 64-64 64H352c-8.8 0-16-7.2-16-16s7.2-16 16-16h96c17.7 0 32-14.3 32-32s-14.3-32-32-32H288c-8.8 0-16-7.2-16-16s7.2-16 16-16z"/></svg>

<svg xmlns="http://www.w3.org/2000/svg" viewBox="0 0 512 512"><!--! Font Awesome Pro 6.1.1 by @fontawesome - https://fontawesome.com License - https://fontawesome.com/license (Commercial License) Copyright 2022 Fonticons, Inc. --><path d="M256 32C132.3 32 32 132.3 32 256C32 379.7 132.3 480 256 480C335.8 480 405.8 438.3 445.5 375.5C450.2 367.1 460.1 365.8 467.6 370.5C475.1 375.2 477.3 385.1 472.6 392.5C427.3 464.3 347.2 512 256 512C114.6 512 0 397.4 0 256C0 114.6 114.6 0 256 0C373.8 0 472.9 79.51 502.8 187.7C505.1 196.3 500.1 205.1 491.6 207.4C483.1 209.8 474.3 204.8 471.9 196.3C445.8 101.5 359 32 256 32V32zM200.4 176C200.4 189.3 189.6 200 176.4 200C163.1 200 152.4 189.3 152.4 176C152.4 162.7 163.1 152 176.4 152C189.6 152 200.4 162.7 200.4 176zM360.4 176C360.4 189.3 349.6 200 336.4 200C323.1 200 312.4 189.3 312.4 176C312.4 162.7 323.1 152 336.4 152C349.6 152 360.4 162.7 360.4 176zM166.4 396.8C159.3 391.5 157.9 381.4 163.2 374.4C180.7 351.1 208.6 336 240 336C253.6 336 266.6 338.8 278.4 343.1C286.5 347.5 290.2 356.1 286.7 365.1C283.1 373.2 273.7 376.9 265.6 373.3C257.8 369.9 249.1 368 240 368C219.1 368 200.5 378 188.8 393.6C183.5 400.7 173.5 402.1 166.4 396.8H166.4zM448 224C483.3 224 512 252.7 512 288C512 323.3 483.3 352 448 352H352C343.2 352 336 344.8 336 336C336 327.2 343.2 320 352 320H448C465.7 320 480 305.7 480 288C480 270.3 465.7 256 448 256H288C279.2 256 272 248.8 272 240C272 231.2 279.2 224 288 224H448z"/></svg>
